!!!OTL: Schönes Himmelreich (2-25) S. 79
!!!id: P0898
**kern
*clefG2
*k[f#c#]
*e:
{8e
8e
8e
=1
*M3/4
2b
4b
=2
4dd
4ee
4dd
=3
*M2/4
2cc#}
=4
{8dd
8cc#
=5
*M3/4
4.b
8cc#
4b
=6
4a
4g#
8f#
8g#
=7
*M2/4
4a
4g#
=8
2f#}
=9
{4ee
=10
*M3/4
4b
4b
4ee
=11
8b
8cc#
4b
4a
=12
4g
4b
8g
8f#
=13
*M2/4
2e}
=14
{8e
8f#
=15
*M3/4
4g
4b
8b
8a
=16
4.b
8cc#
8b
8a
=17
*M2/4
4g
4f#
=18
4.e}
==
*-
!!!minrhy: 8
!!!meters: 2/4 3/4 ]  ZZ[4
!!!cut: Schönes Himmelreich (2-25) S. 79
!!!reg: Lothringen
!!!trd: PINCK, Louis: Verklingende Weisen, Bd 2, Metz 1928
!!!rhy1: XXX  X__X_  X_X_X_  X__
!!!rhy2: XX  X_.XX_  X_X_XX  X_X_  X__
!!!key: P0898  08  E 2/4 3/4 ]  ZZ[4
!!!mod: ACHTTONSKALA ]  AMBITUS[8
!!!kad: 6211
!!!akz: 57b6_5442_553b1_3b53b1_
!!!fot: 'a__b__c__d__
!!!for: 'a__b__c__d__
!!!fok: '^a_\__\__^__
!! PHRAS[AUFTAKTIG]
!!!fkt: geistliche, religiöse Lieder
!! LOTH VKL
!! PR[25] 2K[0] 2G[3] 3K[17] 3G[6] 4A[6] 4Ü[0] 5A[0] 6K[0] 6G[0]
!! 7K[0] 7G[0] 8A[0] MEHR[0] SI[33] ABS[63] SR[3] SP[30]
!! ST[16] 2k[13] 2g[16] 3k[3] 3g[3] 4d[0] 4ü[0] 5d[0] 6k[3] 6g[3]
!! 7k[0] 7g[0] 8d[0] mehr[0] si[41] dm[-8] sr[29] sp[13]
!! 1F[11] 2F[57] 3F[20] 4F[0] LF[0] 2P[0] 3P[11] 4P[0] TRI[0] DF[4] AB[70]
!! TF[0] U3K[0] U3[0] U4[0] U4Ü[0] U5[0] U6K[0] U6[0] U7K[0] U7[0]
!! N1[0] N2K[0] N2[0] N3K[0] N3[22] N4[16] N4Ü[0] N5[31] N6K[0] N6[6]
!!!n7k: 0] N7[6] O1[9] O2K[0] O2[6] O3K[0] O3[3] HÖ[0
